usr/share/icons/biglinux-icons-material/symbolic/status/network-cellular-signal-none-symbolic.svg

<svg width="16" height="16.001" version="1.1" xmlns="http://www.w3.org/2000/svg">
 <path d="m0 11v3h3v-3h-3zm1 1h1v1h-1v-1z" fill="#333333"/>
 <path d="m4 8v6h3v-6h-3zm1 1h1v4h-1v-4z" fill="#333333"/>
 <path d="m8 5v9h3v-9h-3zm1 1h1v7h-1v-7z" fill="#333333"/>
 <path d="m12 2v12h3v-12zm1 1h1v10h-1z" fill="#333333"/>
</svg>

<svg xmlns="http://www.w3.org/2000/svg" width="16" height="16.001"><path fill="#333" d="M0 11v3h3v-3H0zm1 1h1v1H1v-1zM4 8v6h3V8H4zm1 1h1v4H5V9zM8 5v9h3V5H8zm1 1h1v7H9V6zM12 2v12h3V2zm1 1h1v10h-1z"/></svg>
